X:1
T:Amicus meus osculi - Viadana
T:James Gibb editions
T:#
%%score [ 1 2 3 4 ]
L:1/8
Q:1/4=200
M:none
K:C
V:1 treble nm="Soprano" snm="S"
V:2 treble nm="Alto" snm="A"
V:3 treble-8 nm="Tenor" snm="T"
V:4 bass nm="Bass" snm="B"
V:1
"^Amicus meus osculi""^Ludovico da Viadana\n(1560-1627)" G8 G4 G4 | A4 F4 G6 G2 | G4 F4 G8 | %3
w: A- mi- cus|me- us o- scu-|li me tra-|
 G4 G4 A8 | D8 z4 G4 | G4 G4 A4 B4 | c6 c2 B4 B4 | c4 A8 A4 | G4 G4 G8 | G8 z8 | z16 | z8 z4 c4 | %12
w: di- dit si-|gno: quem|o- scu- la- tus|fu- e- ro, i-|pse est, te-|ne- te e-|um:||qui|
 A4 A6 G2 A4 | G4 G4 F8 | E8 G8 | G4 A8 ^G4 | A16 || G8 G4 G4 | F4 G4 A8 | B4 B6 B2 c4 | %20
w: per o- scu- lum|ad- im- ple-|vit ho-|mi- ci- di-|um.|In- fe- lix|prae- ter- mi-|sit pre- ti- um|
 (A6 G2 F4) F4 | E8 z4 c4- | c4 B4 A4 G4 | F6 F2 E8 | G4 G4 ^F4[Q:1/4=100] !fermata!G4 |] %25
w: san\- * * gui-|nis, et|* in fi- ne|la- que- o|se su- spen- dit.|
[Q:1/4=100][Q:1/4=100][Q:1/4=100][Q:1/4=100] G16 | F16 | F4 E8 (G4- | G4 ^F4) G16 || G8 G4 G4 | %30
w: Bonum~erat~ei,|si~natus~non~fuisset|ho- mo il\-|* * le.|In- fe- lix|
 F4 G4 A8 | B4 B6 B2 c4 | (A6 G2 F4) F4 | E8 z4 c4- | c4[Q:1/4=99] B4[Q:1/4=97] A4[Q:1/4=96] G4 | %35
w: prae- ter- mi-|sit pre- ti- um|san\- * * gui-|nis, et|* in fi- ne|
[Q:1/4=94] F6[Q:1/4=92] F2[Q:1/4=90] E8 | %36
w: la- que- o|
[Q:1/4=88] G4[Q:1/4=87] G4[Q:1/4=85] ^F4[Q:1/4=50] !fermata!G4 |] %37
w: se su- spen- dit.|
V:2
 D8 D4 D4 | F4 F4 E6 E2 | C4 D4 E8 | D4 E4 C8 | B,8 z4 D4 | E4 D4 E4 D4 | E6 F2 G4 G4 | G4 F8 F4 | %8
w: A- mi- cus|me- us o- scu-|li me tra-|di- dit si-|gno: quem|o- scu- la- tus|fu- e- ro, i-|pse est, te-|
 E4 E4 D8 | E8 z4 D4 | D4 E4 D4 E4 | (F4 E4) G4 G4 | F4 F6 G2 F4 | D4 E4 C4 D4 | (B,6 CD E4) D4 | %15
w: ne- te e-|um: hoc|ma- lum fe- cit|si\- * gnum, qui|per o- scu- lum|ad- im- ple- vit|ho\- * * * mi-|
 E12 E4 | E16 || E8 E4 E4 | C4 E4 (E4 F4) | G4 G6 G2 G4 | (C8 D6) D2 | G,8 z4 G4- | G4 F4 E4 E4 | %23
w: ci- di-|um.|In- fe- lix|prae- ter- mi\- *|sit pre- ti- um|san\- * gui-|nis, et|* in fi- ne|
 C6 C2 C4 B,4 | E4 D8 !fermata!D4 |] D16 | D16 | C4 C4 (B,6 C2 | D8) D16 || E8 E4 E4 | %30
w: la- que- o se|su- spen- dit.|Bonum~erat~ei,|si~natus~non~fuisset|ho- mo il\- *|* le.|In- fe- lix|
 C4 E4 (E4 F4) | G4 G6 G2 G4 | (C8 D6) D2 | G,8 z4 G4- | G4 F4 E4 E4 | C6 C2 C4 B,4 | %36
w: prae- ter- mi\- *|sit pre- ti- um|san\- * gui-|nis, et|* in fi- ne|la- que- o se|
 E4 D8 !fermata!D4 |] %37
w: su- spen- dit.|
V:3
 B8 B4 B4 | c4 d4 B6 B2 | G4 A4 c6 c2 | G4 (G8 ^F4) | G8 z4 G4 | c4 B4 c4 B4 | A6 A2 G4 d4 | %7
w: A- mi- cus|me- us o- scu-|li me tra- di-|dit si\- *|gno: quem|o- scu- la- tus|fu- e- ro, i-|
 e4 c4 c4 d4 | B4 (c8 B4) | c8 z4 B4 | B4 G4 A4 B4 | c8 d4 e4 | d4 c6 c2 c4 | B4 c4 A4 B4 | %14
w: pse est, te- ne-|te e\- *|um: hoc|ma- lum fe- cit|si- gnum, qui|per o- scu- lum|ad- im- ple- vit|
 (G6 AB c4) d4 | (c8 B6) B2 | ^c16 || !courtesy!=c8 c4 c4 | A4 B4 c8 | d4 d6 d2 e4 | %20
w: ho\- * * * mi-|ci\- * di-|um.|In- fe- lix|prae- ter- mi-|sit pre- ti- um|
 (c2 A2 c8) B4 | c8 z4 e4- | e4 d4 c4 B4 | A6 A2 G8 | B4 B4 A4 !fermata!G4 |] B16 | A16 | %27
w: san\- * * gui-|nis, et|* in fi- ne|la- que- o|se su- spen- dit.|Bonum~erat~ei,|si~natus~non~fuisset|
 A4 G4 (G8 | A8) B16 || c8 c4 c4 | A4 B4 c8 | d4 d6 d2 e4 | (c2 A2 c8) B4 | c8 z4 e4- | %34
w: ho- mo il\-|* le.|In- fe- lix|prae- ter- mi-|sit pre- ti- um|san\- * * gui-|nis, et|
 e4 d4 c4 B4 | A6 A2 G8 | B4 B4 A4 !fermata!G4 |] %37
w: * in fi- ne|la- que- o|se su- spen- dit.|
V:4
 G,8 G,4 G,4 | F,4 D,4 E,6 E,2 | E,4 D,4 C,8 | B,,4 C,4 A,,8 | G,,8 z8 | z16 | z8 z4 G,4 | %7
w: A- mi- cus|me- us o- scu-|li me tra-|di- dit si-|gno:||i-|
 E,4 F,8 D,4 | E,4 C,4 G,8 | C,8 z4 G,4 | G,4 E,4 F,4 G,4 | A,8 G,4 C,4 | D,4 F,6 E,2 F,4 | %13
w: pse est, te-|ne- te e-|um: hoc|ma- lum fe- cit|si- gnum, qui|per o- scu- lum|
 G,4 E,4 F,4 D,4 | (E,6 D,2 C,4) B,,4 | (C,6 D,2 E,4) E,4 | A,,16 || C,8 C,4 C,4 | F,4 E,4 A,8 | %19
w: ad- im- ple- vit|ho\- * * mi-|ci\- * * di-|um.|In- fe- lix|prae- ter- mi-|
 G,4 G,6 G,2 E,4 | (F,6 E,2 D,4) D,4 | C,8 z4 C,4- | C,4 G,4 A,4 E,4 | F,6 F,2 C,4 E,4- | %24
w: sit pre- ti- um|san\- * * gui-|nis, et|* in fi- ne|la- que- o se|
 E,4 G,4 D,4 !fermata!G,,4 |] G,16 | D,16 | F,4 C,4 (E,8 | D,8) G,,16 || C,8 C,4 C,4 | %30
w: * su- spen- dit.|Bonum~erat~ei,|si~natus~non~fuisset|ho- mo il\-|* le.|In- fe- lix|
 F,4 E,4 A,8 | G,4 G,6 G,2 E,4 | (F,6 E,2 D,4) D,4 | C,8 z4 C,4- | C,4 G,4 A,4 E,4 | %35
w: prae- ter- mi-|sit pre- ti- um|san\- * * gui-|nis, et|* in fi- ne|
 F,6 F,2 C,4 E,4- | E,4 G,4 D,4 !fermata!G,,4 |] %37
w: la- que- o se|* su- spen- dit.|

